!!!COM: Haydn, Franz Joseph
!!!OTL: String Quartet in B-flat Major
!!!OPS: Opus 64
!!!ONM: No. 3
!!!OMD: Vivaci assai
!!!OMV: 1
!!!SCT: H III:67
!!!SCA: Thematisch-bibliographisches Werkevererzeichnis (A. van Hoboken)
!!!YOR: Dover Edition; reprint of Eulenburg Edition
!!!ENC: Frances Bennion
!!!CDT: 1732/3/31/-1809/5/31/
!!!CNT: Oesterreich
!!!YEC: Copyright (c) 1994, 2000 Center for Computer Assisted Research in the Humanities
!!!YEM: Rights to all derivative editions reserved.
!!!YEM: Refer to licensing agreement for further details.
!!!YEN: United States of America
**kern	**kern	**kern	**kern
*k[b-e-]	*k[b-e-]	*k[b-e-]	*k[b-e-]
*B-:	*B-:	*B-:	*B-:
*clefF4	*clefC3	*clefF	*clefF
*M3/4	*M3/4	*M3/4	*M3/4
4.r	4.r	4.r	4.r
8B-	8f	8b-	8dd
8A	8f	8cc	8ee-
8B-	8f	8b-	8dd
=1	=1	=1	=1
4e-	4.f	4a	8dd
.	.	.	8cc
8d	.	8b-	8b-
4.r	8f	8dd	8ff
.	8e	8cc#	8ee
.	8f	8dd	8ff
=2	=2	=2	=2
4F	16c	4a	16cc
.	16B	.	16b
.	16c	.	16cc
.	16d	.	16dd
8r	8c	8r	8cc
8B-	8f	8b-	8dd
8G	8e-	8b-	8ee-
8D	8d	8b-	8ff
=3	=3	=3	=3
4E-	4e-	4.b-	8ff#
.	.	.	8gg
8D	8d	.	8ff
4.r	4.r	8dd	8ddd
.	.	8a	8aa
.	.	8b-	8bb-
=4	=4	=4	=4
4.E-	4.r	8f#	8ff#
.	.	8g	8gg
.	.	8c	8cc
8C	8E-	8g	8ee-
8F	8F	16f	16dd
.	.	16e-	16cc
8FF	8F	16d	16b-
.	.	16c	16a
=5	=5	=5	=5
4BB-	4F	4d	8b-
.	.	.	8f
8r	8r	8r	8d
8B-	8f	8b-	8dd
8A	8f	8cc	8ee-
8B-	8f	8b-	8dd
=6	=6	=6	=6
4e-	4f	4a	8dd
.	.	.	8cc
8d	2r	8b-	8b-
4.r	.	4.r	8ddd
.	.	.	16ccc
.	.	.	16bb-
.	.	.	16aa
.	.	.	16gg
=7	=7	=7	=7
2.r	8f	8a	8ff
.	8a	8cc	8ee-
.	8b-	8b-	8dd
.	4.r	4.r	4.r
=8	=8	=8	=8
8BB-	2.r	2.r	2.r
16BB-	.	.	.
16AA	.	.	.
8BB-	.	.	.
16BB-	.	.	.
16AA	.	.	.
8BB-	.	.	.
16BB-	.	.	.
16AA	.	.	.
=9	=9	=9	=9
8BB-	8B-	8d	2.r
8r	16B-	16d	.
.	16F	16B-	.
8BB-	8B-	8d	.
8r	16B-	16d	.
.	16F	16B-	.
8BB-	8B-	8d	.
8r	16B-	16d	.
.	16F	16B-	.
=10	=10	=10	=10
8BB-	8B-	8d	8ff
8r	16B-	16d	16ff
.	16F	16B-	16ee
8BB-	8B-	8d	8ff
8r	16B-	16d	16ff
.	16F	16B-	16ee
8BB-	8B-	8d	8ff
8r	16B-	16d	16ff
.	16F	16B-	16ee
=11	=11	=11	=11
8AA	8c	8e-	16ff
.	.	.	16ee
8r	16c	16e-	16ff
.	16F	16c	16gg
8AA	8c	8e-	16ff
.	.	.	16ee
8r	16c	16e-	16ff
.	16F	16c	16gg
8AA	8c	8e-	16ff
.	.	.	16ee-
8r	16c	16e-	16dd
.	16F	16c	16cc
=12	=12	=12	=12
8BB-	8B-	8d	8b-
8r	16B-	16d	16b-
.	16F	16B-	16a
8BB-	8B-	8d	8b-
8r	16B-	16d	16b-
.	16F	16B-	16a
8BB-	8B-	8d	8b-
8r	16B-	16d	16b-
.	16F	16B-	16dd
=13	=13	=13	=13
8FF	8A	8c	8cc
8r	16A	16c	8cc
.	16F	16A	.
8F	8A	8c	4.cc
8r	16A	16c	.
.	16F	16A	.
8F	8A	8c	.
8r	16A	16c	16dd
.	16F	16A	16ee-
=14	=14	=14	=14
8BB-	8B-	8d	8ff
8r	16B-	16d	16ff
.	16F	16B-	16ee
8BB-	8B-	8d	8ff
8r	16B-	16d	16ff
.	16F	16B-	16ee
8BB-	8B-	8d	8ff
8r	16B-	16d	16ff
.	16F	16B-	16ee
=15	=15	=15	=15
8AA	8c	8e-	16ff
.	.	.	16ee
8r	16c	16e-	16ff
.	16F	16c	16gg
8AA	8c	8e-	16ff
.	.	.	16ee
8r	16c	16e-	16ff
.	16F	16c	16gg
8AA	8c	8e-	16ff
.	.	.	16ee-
8r	16c	16e-	16dd
.	16F	16c	16cc
=16	=16	=16	=16
8BB-	8B-	8d	8b-
8r	16B-	16d	16b-
.	16F	16B-	16a
8BB-	8B-	8d	16b-
.	.	.	16cc
8r	16B-	16d	16dd
.	16F	16B-	16b-
8FF	8c	8e-	16cc
.	.	.	16dd
8r	16c	16e-	16ee-
.	16A	16c	16cc
=17	=17	=17	=17
8BB-	4B-	4d	4b-
16BB-	.	.	.
16AA	.	.	.
8BB-	8r	8r	8r
4.r	8f	8b-	8dd
.	8g	8b-	8ee-
.	8f	8b-	8dd
=18	=18	=18	=18
4.r	4e-	4a	8dd
.	.	.	8cc
.	8d	8b-	8b-
8BB-	8f	8dd	8ff
8BB-	8e	8cc#	8ee
8BB-	8f	8dd	8ff
=19	=19	=19	=19
4AA	8e-	4cc	4ff#
.	8c	.	.
8GG	8d	8b-	8gg
8GG	8d	8gg	8bb-
8FF#	8d	8aa	8ccc
8GG	8d	8gg	8bb-
=20	=20	=20	=20
4C	4e-	4ff#	8bb-
.	.	.	8aa
8BB-	8d	8gg	8gg
4.r	4.r	4.r	8gg
.	.	.	8bb-
.	.	.	8ddd
=21	=21	=21	=21
4e	4g	4b-	8ddd
.	.	.	8ccc
8r	8r	8r	8r
8FF	8c	8ff	8aa
8EE	8c	8gg	8bb-
8FF	8c	8ff	8aa
=22	=22	=22	=22
4BB-	4.c	4ee	8aa
.	.	.	8gg
8AA	.	8ff	8ff
4.r	4.r	4.r	8ff
.	.	.	8aa
.	.	.	8ccc
=23	=23	=23	=23
2.r	4.dd	4.ff	4ccc
.	.	.	8bb-
.	8cc	8ee	8aa
.	8dd	8ff	8bb-
.	8cc	8ee	8aa
=24	=24	=24	=24
2.r	4b-	4dd	8aa
.	.	.	8gg
.	8a	8cc	8ff
.	8a	8cc	8ff
.	8b-	8dd	8gg
.	8a	8cc	8ff
=25	=25	=25	=25
2.r	4g	4b-	8ff
.	.	.	8ee
.	8f	8a	8dd
.	8e	8g	8cc
.	8f	8a	8dd
.	8e	8g	8cc
=26	=26	=26	=26
2.r	4.d	4.f	8cc
.	.	.	8b
.	.	.	8b-
.	8c	8e	8a
.	8d	8f	8b-
.	8c	8e	8a
=27	=27	=27	=27
4.r	4.B-	4.d	8a
.	.	.	8a-
.	.	.	8g
8A	8c	8c	8f
8G	8B-	8e	8g
8F	8A	8f	8a
=28	=28	=28	=28
4E	4G 4C	4g	16b-
.	.	.	16g
.	.	.	16a
.	.	.	16b-
2r	2r	2r	16cc
.	.	.	16dd
.	.	.	16ee
.	.	.	16ff
.	.	.	16gg
.	.	.	16aa
.	.	.	16bb-
.	.	.	16ccc
=29	=29	=29	=29
4C	4e	4b- 4g	8ddd
.	.	.	8ccc
2r	2r	2r	8ccc
.	.	.	8ccc
.	.	.	8ccc
.	.	.	8ccc
=30	=30	=30	=30
4C	16c	16e	8ddd
.	16d	16f	.
.	16e	16g	8ccc
.	16d	16f	.
2r	16f	16a	8ccc
.	16e	16g	.
.	16g	16b-	8ccc
.	16f	16a	.
.	16g	16b-	8ccc
.	16f	16a	.
.	16e	16g	8ccc
.	16d	16f	.
=31	=31	=31	=31
4C	16c	16e	8ddd
.	16d	16f	.
.	16e	16g	8ccc
.	16d	16f	.
2r	16f	16a	8ccc
.	16e	16g	.
.	16g	16b-	8ccc
.	16f	16a	.
.	16a	16cc	8ccc
.	16g	16b-	.
.	16b-	16dd	8ccc
.	16g	16b-	.
=32	=32	=32	=32
4C	8e	8g	16ddd
.	.	.	16ccc
.	2r	2r	16ddd
.	.	.	16ccc
2r	.	.	8ee
.	.	.	4.r
.	8r	8r	.
=33	=33	=33	=33
4FF	2.r	16A	2aa
.	.	16c	.
.	.	16f	.
.	.	16c	.
4F	.	16A	.
.	.	16c	.
.	.	16A	.
.	.	16c	.
4r	.	16A	8ccc
.	.	16c	.
.	.	16f	8ff
.	.	16c	.
=34	=34	=34	=34
4CC	16B-	8B-	2ee
.	16c	.	.
.	16e	8r	.
.	16c	.	.
4C	16B-	8G	.
.	16c	.	.
.	16B-	8r	.
.	16c	.	.
4r	16B-	8e	8bb-
.	16c	.	.
.	16e	8r	8gg
.	16c	.	.
=35	=35	=35	=35
4FF	8f	16A	4ff
.	.	16c	.
.	8r	16f	.
.	.	16c	.
4F	8c	16A	4aa
.	.	16c	.
.	4.r	16A	.
.	.	16c	.
4r	.	16A	16gg
.	.	16c	16ff
.	.	16f	16ee
.	.	16c	16dd
=36	=36	=36	=36
4E	16B-	8B-	4cc
.	16c	.	.
.	16e	8r	.
.	16c	.	.
4c	16B-	8e	2r
.	16c	.	.
.	16B-	8r	.
.	16c	.	.
4r	16B-	8g	.
.	16c	.	.
.	16e	8r	.
.	16c	.	.
=37	=37	=37	=37
4FF	8f	16A-	2aa-
.	.	16c	.
.	8r	16f	.
.	.	16c	.
4F	8c	16A-	.
.	.	16c	.
.	8r	16A-	.
.	.	16c	.
4r	8F	16A-	8ccc
.	.	16c	.
.	8r	16f	8ff
.	.	16c	.
=38	=38	=38	=38
4CC	16B-	8B-	2ee
.	16c	.	.
.	16e	8r	.
.	16c	.	.
4C	16B-	8G	.
.	16c	.	.
.	16B-	8r	.
.	16c	.	.
4r	16B-	8e	8bb-
.	16c	.	.
.	16e	8r	8gg
.	16c	.	.
=39	=39	=39	=39
2FF	4f	16A-	[2aa-
.	.	16c	.
.	.	16f	.
.	.	16c	.
.	2r	16A-	.
.	.	16c	.
.	.	16f	.
.	.	16c	.
8AA-	.	16A-	8aa-]
.	.	16c	.
8CC	.	16f	8gg-
.	.	16e-	.
=40	=40	=40	=40
2DD-	16A-	4d-	2ff
.	16d-	.	.
.	16f	.	.
.	16d-	.	.
.	16A-	2r	.
.	16d-	.	.
.	16f	.	.
.	16d-	.	.
8F	16A	.	4ee-
.	16c	.	.
8AA	16e-	.	.
.	16c	.	.
=41	=41	=41	=41
4BB-	4B-	2.f	4dd-
4C	4.A-	.	4cc
4D-	.	.	4b
.	16G	.	.
.	16F	.	.
=42	=42	=42	=42
16CC	4G	4e	4cc
16C	.	.	.
16CC	.	.	.
16C	.	.	.
16CC	2r	2r	8r
16C	.	.	.
16CC	.	.	8ccc
16C	.	.	.
16CC	.	.	8ddd
16C	.	.	.
16CC	.	.	8ccc
16C	.	.	.
=43	=43	=43	=43
16CC	8r	8r	8bb
16C	.	.	.
16CC	8d	8ff	4r
16C	.	.	.
16CC	8e	8gg	.
16C	.	.	.
16CC	8d	8ff	8bb-
16C	.	.	.
16CC	8c	8ee	8ccc
16C	.	.	.
16CC	8r	8r	8bb-
16C	.	.	.
=44	=44	=44	=44
16CC	8r	8r	8aa
16C	.	.	.
16CC	8c	8ee	4r
16C	.	.	.
16CC	8d	8ff	.
16C	.	.	.
16CC	8c	8ee	8aa
16C	.	.	.
16CC	8B-	8dd	8bb-
16C	.	.	.
16CC	8r	8r	8aa
16C	.	.	.
=45	=45	=45	=45
16CC	8r	8r	8gg
16C	.	.	.
16CC	8B-	8dd	4r
16C	.	.	.
16CC	8c	8ee	.
16C	.	.	.
16CC	8B-	8dd	8gg
16C	.	.	.
16CC	8A	8cc	8aa
16C	.	.	.
16CC	8r	8r	8gg
16C	.	.	.
=46	=46	=46	=46
16CC	8r	8r	8ff
16C	.	.	.
16CC	8A	8cc	4r
16C	.	.	.
16CC	8B-	8dd	.
16C	.	.	.
16CC	8A	8cc	8ff
16C	.	.	.
16CC	8G	8b-	8gg
16C	.	.	.
16CC	8r	8r	8ff
16C	.	.	.
=47	=47	=47	=47
16CC	8r	8r	8ee
16C	.	.	.
16CC	8a	8f	8dd
16C	.	.	.
16CC	8g	8e	8cc
16C	.	.	.
16CC	8f	8d	8b-
16C	.	.	.
16CC	8e	8c	8a
16C	.	.	.
16CC	8c	8B-	8g
16C	.	.	.
=48	=48	=48	=48
4FF	4f	16A	4f
.	.	16c	.
.	.	16f	.
.	.	16a	.
2r	2r	16cc	2r
.	.	16b-	.
.	.	16a	.
.	.	16g	.
.	.	16f	.
.	.	16e	.
.	.	16d	.
.	.	16c	.
=49	=49	=49	=49
4C	4e	16B-	2.r
.	.	16c	.
.	.	16e	.
.	.	16g	.
2r	2r	16b-	.
.	.	16a	.
.	.	16g	.
.	.	16f	.
.	.	16e	.
.	.	16d	.
.	.	16c	.
.	.	16B-	.
=50	=50	=50	=50
4F	16F	16A	2.f
.	16A	16c	.
.	16c	16f	.
.	16f	16a	.
2r	16a	16cc	.
.	16g	16b-	.
.	16f	16a	.
.	16e	16g	.
.	16d	16f	.
.	16c	16e	.
.	16B-	16d	.
.	16A	16c	.
=51	=51	=51	=51
4C	16G	16B-	2.e
.	16B-	16c	.
.	16c	16e	.
.	16e	16g	.
2r	16g	16b-	.
.	16f	16a	.
.	16e	16g	.
.	16d	16f	.
.	16c	16e	.
.	16B-	16d	.
.	16A	16c	.
.	16G	16B-	.
=52	=52	=52	=52
16FF	4F	4A	4f
16AA	.	.	.
16C	.	.	.
16F	.	.	.
16A	2r	4r	4cc
16G	.	.	.
16F	.	.	.
16E	.	.	.
16D	.	4a	[4ff
16C	.	.	.
16BB-	.	.	.
16AA	.	.	.
=53	=53	=53	=53
4GG	16G	4b-	4ff]
.	16B-	.	.
.	16d	.	.
.	16g	.	.
2r	16b-	4g	4ee
.	16a	.	.
.	16g	.	.
.	16f	.	.
.	16e	4b-	[4gg
.	16d	.	.
.	16c	.	.
.	16B-	.	.
=54	=54	=54	=54
16AA	4A	2.cc	4gg]
16C	.	.	.
16E	.	.	.
16F	.	.	.
16A	2r	.	4ff
16B-	.	.	.
16A	.	.	.
16G	.	.	.
16F	.	.	[4aa
16E	.	.	.
16D	.	.	.
16C	.	.	.
=55	=55	=55	=55
4BB-	16B-	4dd	4aa]
.	16d	.	.
.	16g	.	.
.	16b-	.	.
2r	16dd	4b-	4gg
.	16cc	.	.
.	16b-	.	.
.	16a	.	.
.	16g	4dd	[4bb-
.	16f	.	.
.	16e	.	.
.	16d	.	.
=56	=56	=56	=56
2.C	16c	2.ee	16bb-]
.	16d	.	16aa
.	16e	.	16gg
.	16f	.	16aa
.	2g	.	16bb-
.	.	.	16aa
.	.	.	16gg
.	.	.	16ff
.	.	.	16ee
.	.	.	16dd
.	.	.	16cc
.	.	.	16b-
=57	=57	=57	=57
4FF	4a	4ff	16a
.	.	.	16b-
.	.	.	16cc
.	.	.	16b-
2r	2r	2r	16a
.	.	.	16g
.	.	.	16f
.	.	.	16e
.	.	.	16d
.	.	.	16c
.	.	.	16B-
.	.	.	16A
=58	=58	=58	=58
2.BB-	2.d	2.g	8G
.	.	.	8B-
.	.	.	8d
.	.	.	8g
.	.	.	8b-
.	.	.	8dd
=59	=59	=59	=59
2.BB	2.f 2.d	2.a-	8B
.	.	.	8d
.	.	.	8f
.	.	.	8a-
.	.	.	8b
.	.	.	8dd
=60	=60	=60	=60
4C	4f	4a	8ff
.	.	.	16gg#
.	.	.	16aa
2r	2r	2r	16ee
.	.	.	16ff
.	.	.	16b
.	.	.	16cc
.	.	.	16g#
.	.	.	16a
.	.	.	16e
.	.	.	16f
=61	=61	=61	=61
4C	4e	4b- 4g	4c
4r	4.e	4.gg	4.ccc
4C	.	.	.
.	16d	16ff	8bb-
.	16e	16gg	.
=62	=62	=62	=62
4FF	8f	8ff	8aa
.	8r	8r	8ccc
8r	4.b-	4.ee	4.gg
16BB	.	.	.
16C	.	.	.
16BB	.	.	.
16C	.	.	.
16CC	16a	16dd	16ff
16C	16b-	16ee	16gg
=63	=63	=63	=63
4FF	8a	8ff	8ff
.	8r	8r	8aa
8r	2e	4.g	4.b-
16BB	.	.	.
16C	.	.	.
16BB	.	.	.
16C	.	.	.
16CC	.	16f	16a
16C	.	16g	16b-
=64	=64	=64	=64
4FF	8f	8f	8a
.	8r	8r	8cc
8r	4.G	4.B-	4.e
16BB	.	.	.
16C	.	.	.
16BB	.	.	.
16C	.	.	.
16CC	16F	16A	16d
16C	16G	16B-	16e
=65	=65	=65	=65
8FF	4A	8A	4f
8FF	.	4r	.
8FF	4.r	.	8r
8FF	.	8c	8a
8FF	.	8d	8b-
8FF	8C	8c	8a
=66	=66	=66	=66
8FF	8D	8c	8a
8FF	8E	8B-	8g
8FF	8F	8A	8f
8FF	4r	8a	8cc
8FF	.	8b-	8dd
8FF	8c	8a	8cc
=67	=67	=67	=67
4FF	8d	8a	8cc
.	8e	8g	8b-
2r	8f	8f	8a
.	4.r	8a	8cc
.	.	8cc	8ee-
.	.	8b-	8dd
=68	=68	=68	=68
2.r	2.r	8dd	8ff
.	.	8cc	8ee-
.	.	8ee-	8gg
.	.	4r	4r
.	.	16r	16r
.	.	16dd	16ff
=69	=69	=69	=69
4.r	4.r	8cc	8ee-
.	.	4r	4r
4.r	8a-	8b-	8dd
.	8g	8b-	8ee-
.	8d	8b-	8ff
=70	=70	=70	=70
4.r	8e-	8b-	8aa-
.	8A	8ee-	8gg
.	8B-	8dd	8ff
8BB-	4.r	4r	4r
8C	.	.	.
8BB-	.	8dd	8ff
=71	=71	=71	=71
8BB-	4.r	8ee-	8gg
8AA-	.	8ff	8aa-
8GG	.	8gg	8bb-
4.r	8g	8b-	8ee-
.	8a-	8cc	8ff
.	8g	8b-	8ee-
=72	=72	=72	=72
2.r	4f	4a-	8ee-
.	.	.	8dd
.	8e-	8g	8cc
.	8e-	8g	8cc
.	8f	8a-	8dd
.	8e-	8g	8cc
=73	=73	=73	=73
4.r	4d	4f	8cc
.	.	.	8b
.	2r	4.r	8aa-
8GG	.	.	4r
8AA-	.	.	.
8GG	.	8d	8b
=74	=74	=74	=74
8GG	4.r	8e-	8cc
8FF	.	8f	8dd
8EE-	.	8g	8ee-
4.r	8c	4r	4r
.	8d-	.	.
.	8c	8g	8ee
=75	=75	=75	=75
4.r	8c	8a-	8ff
.	8B-	8b-	8gg
.	8A-	8cc	8aa-
8F	8c	8ff	8aa-
8E	8d-	8gg	8bb-
8F	8c	8ff	8aa-
=76	=76	=76	=76
4B-	4d-	4ee	8aa-
.	.	.	8gg
8A-	8c	8ff	8ff
4.r	8r	8r	8ff
.	4d-	4f	8dd-
.	.	.	8b
=77	=77	=77	=77
2.r	4c	4f	4b
.	8C	8e	8cc
.	4.r	4.r	4.r
=78	=78	=78	=78
8AA-	2.r	2.r	2.r
16AA-	.	.	.
16GG	.	.	.
8AA-	.	.	.
16AA-	.	.	.
16GG	.	.	.
8AA-	.	.	.
16AA-	.	.	.
16GG	.	.	.
=79	=79	=79	=79
8AA-	8A-	8c	2.r
8r	16A-	16c	.
.	16E-	16A-	.
8AA-	8A-	8c	.
8r	16A-	16c	.
.	16E-	16A-	.
8AA-	8A-	8c	.
8r	16A-	16c	.
.	16E-	16A-	.
=80	=80	=80	=80
8AA-	8A-	8c	8ee-
8r	16A-	16c	16ee-
.	16E-	16A-	16dd
8AA-	8A-	8c	8ee-
8r	16A-	16c	16ee-
.	16E-	16A-	16dd
8AA-	8A-	8c	8ee-
8r	16A-	16c	16ee-
.	16E-	16A-	16dd
=81	=81	=81	=81
8GG	8B-	8d-	16ee-
.	.	.	16dd
8r	16B-	16d-	16ee-
.	16E-	16B-	16ff
8GG	8B-	8d-	16ee-
.	.	.	16dd
8r	16B-	16d-	16ee-
.	16E-	16B-	16ff
8GG	8B-	8d-	16ee-
.	.	.	16dd-
8r	16B-	16d-	16cc
.	16E-	16B-	16b-
=82	=82	=82	=82
8AA-	8A-	8c	8a-
8r	16A-	16c	16a-
.	16E-	16A-	16g
8AA-	8A-	8c	8a-
8r	16A-	16c	16a-
.	16E-	16A-	16g
8AA-	8A-	8c	8a-
8r	16A-	16c	16a-
.	16E-	16A-	16cc
=83	=83	=83	=83
8E-	8G	8B-	8b-
8r	16G	16B-	8b-
.	16E-	16G	.
8E-	8G	8B-	4.b-
8r	16G	16B-	.
.	16E-	16G	.
8E-	8G	8B-	.
8r	16G	16B-	16cc
.	16E-	16G	16dd-
=84	=84	=84	=84
8AA-	8A-	8c	8ee-
8r	16A-	16c	16ee-
.	16E-	16A-	16dd
8AA-	8A-	8c	8ee-
8r	16A-	16c	16ee-
.	16E-	16A-	16dd
8AA-	8A-	8c	8ee-
8r	16A-	16c	16ee-
.	16E-	16A-	16dd
=85	=85	=85	=85
2.GG-	8A-	8c	16ee-
.	.	.	16dd
.	16A-	16c	16ee-
.	16E-	16A-	16ff
.	8A-	8c	16ee-
.	.	.	16dd
.	16A-	16c	16ee-
.	16E-	16A-	16ff
.	8A-	8c	16ee-
.	.	.	16dd-
.	16A-	16c	16cc
.	16E-	16A-	16b-
=86	=86	=86	=86
2.FF	16c	16e-	4a
.	16B	16d	.
.	16c	16e-	.
.	16d-	16f	.
.	16e-	16g-	4ccc
.	16d-	16f	.
.	16c	16e-	.
.	16B-	16d-	.
.	16A	16c	4ee-
.	16B-	16d-	.
.	16c	16e-	.
.	16A	16c	.
=87	=87	=87	=87
4BB-	4B-	16B-	2dd-
.	.	16d-	.
.	.	16f	.
.	.	16d-	.
4B-	4r	16f	.
.	.	16d-	.
.	.	16f	.
.	.	16d-	.
4r	4d-	16B-	8ff
.	.	16d-	.
.	.	16f	8b-
.	.	16d-	.
=88	=88	=88	=88
4FF	16c	4e-	2a
.	16e-	.	.
.	16f	.	.
.	16e-	.	.
4F	16f	4r	.
.	16e-	.	.
.	16f	.	.
.	16e-	.	.
4r	16c	4A	8ee-
.	16e-	.	.
.	16f	.	8dd-
.	16e-	.	.
=89	=89	=89	=89
4BB-	4d-	16B-	4.dd-
.	.	16d-	.
.	.	16f	.
.	.	16d-	.
4B-	2r	16f	.
.	.	16d-	.
.	.	16f	8ff
.	.	16d-	.
4r	.	16B-	16ee-
.	.	16d-	16dd-
.	.	16f	16cc
.	.	16d-	16b-
=90	=90	=90	=90
4FF	16A	4e-	8b-
.	16c	.	.
.	16f	.	8a
.	16c	.	.
4F	16f	4r	4a
.	16c	.	.
.	16f	.	.
.	16c	.	.
4r	16A	8f	4r
.	16c	.	.
.	16f	8A	.
.	16c	.	.
=91	=91	=91	=91
4BB-	4d-	16B-	2dd-
.	.	16d-	.
.	.	16f	.
.	.	16d-	.
4B-	2r	16f	.
.	.	16d-	.
.	.	16f	.
.	.	16d-	.
4r	.	16B-	8ff
.	.	16d-	.
.	.	16f	8b-
.	.	16d-	.
=92	=92	=92	=92
4FF	16c	4e-	2a
.	16e-	.	.
.	16f	.	.
.	16e-	.	.
4F	16f	4r	.
.	16e-	.	.
.	16f	.	.
.	16e-	.	.
4r	16c	4A	8ee-
.	16e-	.	.
.	16f	.	8dd-
.	16e-	.	.
=93	=93	=93	=93
4BB-	4d-	16B-	4.dd-
.	.	16d-	.
.	.	16f	.
.	.	16d-	.
4B-	2r	16f	.
.	.	16d-	.
.	.	16f	8ff
.	.	16d-	.
4r	.	16B-	16ee-
.	.	16d-	16dd-
.	.	16f	16cc
.	.	16d-	16b-
=94	=94	=94	=94
4EE-	16B-	4B-	8a-
.	16d-	.	.
.	16e-	.	8g
.	16d-	.	.
4E-	16e-	4r	4.g
.	16d-	.	.
.	16e-	.	.
.	16d-	.	.
4r	16B-	4e-	.
.	16d-	.	.
.	16e-	.	8b-
.	16d-	.	.
=95	=95	=95	=95
4EE-	4c	16c	8b-
.	.	16e-	.
.	.	16a-	8a-
.	.	16e-	.
4E-	4r	16c	4.a-
.	.	16e-	.
.	.	16c	.
.	.	16e-	.
4r	4A-	16c	.
.	.	16e-	.
.	.	16a-	8cc
.	.	16e-	.
=96	=96	=96	=96
4EE-	16G	4e-	8cc
.	16B-	.	.
.	16e-	.	8b-
.	16B-	.	.
4E-	16G	4r	4.b-
.	16B-	.	.
.	16G	.	.
.	16B-	.	.
4r	16G	4e-	.
.	16B-	.	.
.	16e-	.	8dd-
.	16B-	.	.
=97	=97	=97	=97
8AA-	2.c-	[2.e-	2.cc-
16AA-	.	.	.
16GG	.	.	.
8AA-	.	.	.
16AA-	.	.	.
16GG	.	.	.
8AA-	.	.	.
16AA-	.	.	.
16GG	.	.	.
=98	=98	=98	=98
8AA-	2.c	2.e-]	2.cc
16AA-	.	.	.
16GG	.	.	.
8AA-	.	.	.
16AA-	.	.	.
16GG	.	.	.
8AA-	.	.	.
16AA-	.	.	.
16GG	.	.	.
=99	=99	=99	=99
8AA-	2.E	2.e	8cc
16AA-	.	.	16cc
16GG	.	.	16b
8AA-	.	.	8cc
16AA-	.	.	16cc
16GG	.	.	16b
8AA-	.	.	8cc
16AA-	.	.	16cc
16GG	.	.	16b
=100	=100	=100	=100
8AA-	8F	8f	2.cc
16AA-	16F	16f	.
16GG	16E	16e	.
8AA-	8F	8f	.
16AA-	16F	16f	.
16GG	16E	16e	.
8AA-	8F	8f	.
16AA-	8F	8f	.
16GG	.	.	.
=101	=101	=101	=101
8AA-	4F#	2.f#	8cc
16AA-	.	.	16cc
16GG	.	.	16b
8AA-	4e-	.	8cc
16AA-	.	.	16cc
16GG	.	.	16b
8AA-	4c	.	8cc
8AA-	.	.	16cc
.	.	.	16dd
=102	=102	=102	=102
8GG	8d	8g	8b
16g	16g	16gg	16gg
16f#	16f#	16ff#	16ff#
8g	8g	8gg	8gg
16d	16dd	16dd	16dd
16c#	16cc#	16cc#	16cc#
8d	8dd	8dd	8dd
16B	16b	16b	16b
16A	16a	16a	16a
=103	=103	=103	=103
8B	8b	8b	8b
16G	16g	16g	16g
16F#	16f#	16f#	16f#
8G	8g	8g	8g
16BB	16B	16B	16B
16C	16c	16c	16c
16D	16d	16d	16d
16C	16c	16c	16c
16BB	16B	16B	16B
16AA	16A	16A	16A
=104	=104	=104	=104
8GG	8G	8G	8G
16G	16g	16g	16g
16F#	16f#	16f#	16f#
8G	8g	8g	8g
16GG	4.r	4.r	4.r
16AA-	.	.	.
16GG	.	.	.
16FF	.	.	.
16EE-	.	.	.
16DD	.	.	.
=105	=105	=105	=105
4CC	4e- 4G	16c	4G 4e-
.	.	16e-	.
.	.	16g	.
.	.	16cc	.
2r	2r	16ee-	2r
.	.	16gg	.
.	.	16ff	.
.	.	16ee-	.
.	.	16dd	.
.	.	16cc	.
.	.	16b	.
.	.	16cc	.
=106	=106	=106	=106
4D	4A-	16b	4f
.	.	16dd	.
.	.	16ff	.
.	.	16aa-	.
2r	2r	16gg	2r
.	.	16ff	.
.	.	16ee-	.
.	.	16dd	.
.	.	16cc	.
.	.	16b	.
.	.	16cc	.
.	.	16dd	.
=107	=107	=107	=107
4C	4g	4ee-	16c
.	.	.	16e-
.	.	.	16g
.	.	.	16cc
2r	2r	2r	16ee-
.	.	.	16gg
.	.	.	16ff
.	.	.	16ee-
.	.	.	16dd
.	.	.	16cc
.	.	.	16b
.	.	.	16cc
=108	=108	=108	=108
4F	4A-	4dd	16b
.	.	.	16dd
.	.	.	16ff
.	.	.	16aa-
2r	2r	2r	16gg
.	.	.	16ff
.	.	.	16ee-
.	.	.	16dd
.	.	.	16cc
.	.	.	16b
.	.	.	16cc
.	.	.	16dd
=109	=109	=109	=109
4E-	16C	2.ee-	4ee-
.	16E-	.	.
.	16G	.	.
.	16c	.	.
2r	16e-	.	2r
.	16g	.	.
.	16f	.	.
.	16e-	.	.
.	16d	.	.
.	16c	.	.
.	16B	.	.
.	16c	.	.
=110	=110	=110	=110
16CC	2.B-	2.ee	2.r
16EE	.	.	.
16GG	.	.	.
16C	.	.	.
16E	.	.	.
16F	.	.	.
16G	.	.	.
16E	.	.	.
16C	.	.	.
16BB-	.	.	.
16AA-	.	.	.
16GG	.	.	.
=111	=111	=111	=111
4FF	4A-	4ff	16f
.	.	.	16a-
.	.	.	16cc
.	.	.	16ff
2r	2r	2r	16aa-
.	.	.	16ccc
.	.	.	16bb-
.	.	.	16aa-
.	.	.	16gg
.	.	.	16ff
.	.	.	16ee
.	.	.	16ff
=112	=112	=112	=112
4G	4b-	4dd-	16ee
.	.	.	16gg
.	.	.	16bb-
.	.	.	16ddd-
2r	2r	4e	16ccc
.	.	.	16bb-
.	.	.	16aa-
.	.	.	16gg
.	.	16f	16ff
.	.	16g	16ee
.	.	16a-	16ff
.	.	16b-	16gg
=113	=113	=113	=113
2.F	16F	[2.cc	2.aa-
.	16A-	.	.
.	16c	.	.
.	16f	.	.
.	16a-	.	.
.	16cc	.	.
.	16b-	.	.
.	16a-	.	.
.	16g	.	.
.	16f	.	.
.	16e	.	.
.	16f	.	.
=114	=114	=114	=114
16FF	2e-	4cc]	2.aa
16AA	.	.	.
16C	.	.	.
16F	.	.	.
16A	.	4f	.
16B-	.	.	.
16c	.	.	.
16B-	.	.	.
16A	16cc	16A	.
16G	16b-	16B-	.
16F	16a	16c	.
16E-	16g	16c#	.
=115	=115	=115	=115
[2.D	2.f#	16d	2.aa
.	.	16f#	.
.	.	16a	.
.	.	16cc#	.
.	.	16dd	.
.	.	16ff#	.
.	.	16aa	.
.	.	16gg	.
.	.	16ff#	.
.	.	16ee-	.
.	.	16dd	.
.	.	16cc	.
=116	=116	=116	=116
2.D]	2.g	2b-	16bb-
.	.	.	16g
.	.	.	16b-
.	.	.	16dd
.	.	.	16ff#
.	.	.	16gg
.	.	.	16bb-
.	.	.	16ddd
.	.	4g	16ccc
.	.	.	16bb-
.	.	.	16aa
.	.	.	16gg
=117	=117	=117	=117
4D	16D	4f#	4ddd
.	16d	.	.
.	16D	.	.
.	16d	.	.
4.r	16D	8r	8r
.	16d	.	.
.	16D	8b-	8dd
.	16d	.	.
.	16D	8cc	8ee-
.	16d	.	.
8g	16D	8b-	8dd
.	16d	.	.
=118	=118	=118	=118
8a	16D	4a	4cc
.	16d	.	.
8g	16D	.	.
.	16d	.	.
8f#	16D	8r	8r
.	16d	.	.
4r	16D	8a	8cc
.	16d	.	.
.	16D	8b-	8dd
.	16d	.	.
8f#	16D	8a	8cc
.	16d	.	.
=119	=119	=119	=119
8g	8D	8b-	8b-
8B	8g	8dd	8gg
8c	8g	8cc	8ee-
8e-	8e-	8a	8cc
8d	8d	8g	8b-
8D	8c	8f#	8a
=120	=120	=120	=120
16GG	4B-	4g	4g
16G	.	.	.
16GG	.	.	.
16G	.	.	.
16GG	2r	8r	8r
16G	.	.	.
16GG	.	8b-	8dd
16G	.	.	.
16GG	.	8cc	8ee-
16G	.	.	.
16GG	.	8b-	8dd
16G	.	.	.
=121	=121	=121	=121
16GG	4.r	8b-	8dd
16G	.	.	.
16GG	.	8a	8cc
16G	.	.	.
8GG	.	8g	8b-
8G	8d	8g	8b-
8F#	8e-	8a	8cc
8G	8d	8g	8b-
=122	=122	=122	=122
4c	4e-	4f#	8b-
.	.	.	8a
8B-	8d	8g	8g
4r	4r	8b-	8dd
.	.	8cc	8ee-
8G	8B-	8b-	8dd
=123	=123	=123	=123
8A	8c	8r	8r
8G	8B-	8b-	8dd
8r	8r	8cc	8ee-
8G	8B-	8b-	8dd
8A	8c	8r	8r
8G	8B-	8b-	8dd
=124	=124	=124	=124
2.r	2.r	8cc	8ee-
.	.	8b-	8dd
.	.	8cc	8ee-
.	.	8b-	8dd
.	.	8cc	8ee-
.	.	8b-	8dd
=125	=125	=125	=125
4.r	4.r	8cc	8ee-
.	.	8b-	8dd
.	.	8cc	8ee-
8BB-	8f	8b-	8dd
8AA	8f	8cc	8ee-
8BB-	8f	8b-	8dd
=126	=126	=126	=126
4E-	4.f	4a	8dd
.	.	.	8cc
8D	.	8b-	8b-
4.r	8f	8dd	8ff
.	8e	8cc#	8ee
.	8f	8dd	8ff
=127	=127	=127	=127
4F	16c	4a	16cc
.	16B	.	16b
.	16c	.	16cc
.	16d	.	16dd
8r	8c	8r	8cc
8B-	8f	8b-	8dd
8G	8e-	8b-	8ee-
8D	8d	8b-	8ff
=128	=128	=128	=128
4E-	4e-	4.b-	8ff#
.	.	.	8gg
8D	8d	.	8ff
4.r	4.r	8dd	8ddd
.	.	8a	8aa
.	.	8b-	8bb-
=129	=129	=129	=129
4.E-	4.r	8f#	8ff#
.	.	8g	8gg
.	.	8c	8cc
8C	8E-	8g	8ee-
8F	8F	16f	16dd
.	.	16e-	16cc
8FF	8F	16d	16b-
.	.	16c	16a
=130	=130	=130	=130
4BB-	4F	4d	8b-
.	.	.	8f
8r	8r	8r	8d
8B-	8f	8b-	8dd
8A	8f	8cc	8ee-
8B-	8f	8b-	8dd
=131	=131	=131	=131
4e-	4.f	4a	8dd
.	.	.	8cc
8d	.	8b-	8b-
4.r	8f	8dd	8ff
.	8e	8cc#	8ee
.	8f	8dd	8ff
=132	=132	=132	=132
4F	16c	4a	16cc
.	16B	.	16b
.	16c	.	16cc
.	16d	.	16dd
8r	8c	8r	8cc
8f	4.r	8a	8cc
8e	.	8b-	8dd
8f	.	8a	8cc
=133	=133	=133	=133
16c	2.r	8cc	4.ee-
16B	.	.	.
16c	.	4cc	.
16d	.	.	.
8c	.	.	.
8f	.	4a	8ee-
8B-	.	.	8dd
8e-	.	[8g	8dd
=134	=134	=134	=134
16A	2.r	8g]	4.cc
16G	.	.	.
16A	.	4g	.
16B-	.	.	.
8A	.	.	.
8d	.	4f	8cc
8G	.	.	8b-
8c	.	8e	8b-
=135	=135	=135	=135
16F	2.r	4.e-	4.a
16E	.	.	.
16F	.	.	.
16G	.	.	.
4F	.	.	.
.	.	8e-	8a
4r	.	8e-	8cc
.	.	8d	8b-
=136	=136	=136	=136
16F	2.r	4.cc	4.ee-
16E	.	.	.
16F	.	.	.
16G	.	.	.
4F	.	.	.
.	.	8b-	8dd
4r	.	8dd	8ff
.	.	8cc	8ee-
=137	=137	=137	=137
16F	2.r	4.ee-	4.gg
16E	.	.	.
16F	.	.	.
16G	.	.	.
8F	.	.	.
8F	.	8ee-	8gg
8G	.	8dd	8ff
8A	.	8cc	8ee-
=138	=138	=138	=138
[2.B-	[2.f	8b-	8dd
.	.	4a-	16dd
.	.	.	16cc#
.	.	.	8dd
.	.	4a-	16dd
.	.	.	16cc#
.	.	.	8dd
.	.	8a-	16dd
.	.	.	16cc#
=139	=139	=139	=139
2.B-]	2.f]	2a-	16dd
.	.	.	16ee-
.	.	.	16ff
.	.	.	16gg
.	.	.	16aa-
.	.	.	16bb-
.	.	.	16ccc
.	.	.	16bb-
.	.	4f	16aa-
.	.	.	16gg
.	.	.	16ff
.	.	.	16ee-
=140	=140	=140	=140
2.B	8f	2.g	8dd
.	16f	.	16dd
.	16e	.	16cc#
.	8f	.	8dd
.	16f	.	16dd
.	16e	.	16cc#
.	8f	.	8dd
.	8f	.	8dd
=141	=141	=141	=141
4c	4e-	4g	16ee-
.	.	.	16ff
.	.	.	16gg
.	.	.	16ff
2r	2r	2r	16ee-
.	.	.	16dd
.	.	.	16cc
.	.	.	16dd
.	.	.	16ee-
.	.	.	16dd
.	.	.	16cc
.	.	.	16b-
=142	=142	=142	=142
4F	4c	4a 4e-	16a
.	.	.	16b-
.	.	.	16cc
.	.	.	16b-
2r	2r	2r	16a
.	.	.	16g
.	.	.	16f
.	.	.	16e
.	.	.	16f
.	.	.	16e-
.	.	.	16d
.	.	.	16c
=143	=143	=143	=143
4BB-	4d	4b- 4d	16d
.	.	.	16B-
.	.	.	16c
.	.	.	16d
2r	2r	2r	16e-
.	.	.	16f
.	.	.	16g
.	.	.	16a
.	.	.	16b-
.	.	.	16cc
.	.	.	16dd
.	.	.	16ee-
=144	=144	=144	=144
4GG	4e	4b-	16ff
.	.	.	16ee
.	.	.	16bb-
.	.	.	16gg
2r	2r	2r	16ff
.	.	.	16ee
.	.	.	16gg
.	.	.	16ff
.	.	.	16ee
.	.	.	16dd
.	.	.	16cc
.	.	.	16b-
=145	=145	=145	=145
4FF	4f	4a	16a
.	.	.	16cc
.	.	.	16b-
.	.	.	16dd
2r	2r	2r	16cc
.	.	.	16ee
.	.	.	16dd
.	.	.	16ff
.	.	.	16ee
.	.	.	16gg
.	.	.	16ff
.	.	.	16aa
=146	=146	=146	=146
8FF	4.r	4.r	4f
16FF	.	.	.
16EE	.	.	.
8FF	.	.	8r
8FF	8a	8cc	8ff
8FF	8b-	8dd	8gg
8FF	8a	8cc	8ff
=147	=147	=147	=147
8FF	4g	4b-	8ff
8FF	.	.	8ee-
8FF	8f	8a	8dd
8FF	8f	8a	8dd
8FF	8g	8b-	8ee-
8FF	8f	8a	8dd
=148	=148	=148	=148
8FF	4e-	4g	8dd
8FF	.	.	8cc
8FF	8d	8f	8b-
8FF	8d	8f	8b-
8FF	8e-	8g	8cc
8FF	8d	8f	8b-
=149	=149	=149	=149
[2.FF	[2c	[2e-	16b-
.	.	.	16a
.	.	.	16cc
.	.	.	16b-
.	.	.	16a
.	.	.	16b-
.	.	.	16cc
.	.	.	16dd
.	8c]	8e-]	16cc
.	.	.	16dd
.	16c	16e-	16ee-
.	16B-	16d	16ff
=150	=150	=150	=150
4FF]	4A	4c	8gg
.	.	.	8ff
2r	2r	2r	8ff
.	.	.	8ff
.	.	.	8ff
.	.	.	8ff
=151	=151	=151	=151
4FF	16f	16a	8gg
.	16g	16b-	.
.	16a	16cc	8ff
.	16g	16b-	.
2r	16b-	16dd	8ff
.	16a	16cc	.
.	16cc	16ee-	8ff
.	16b-	16dd	.
.	16cc	16ee-	8ff
.	16b-	16dd	.
.	16a	16cc	8ff
.	16g	16b-	.
=152	=152	=152	=152
4FF	16f	16a	8gg
.	16g	16b-	.
.	16a	16cc	8ff
.	16g	16b-	.
2r	16b-	16dd	8ff
.	16a	16cc	.
.	16cc	16ee-	8ff
.	16b-	16dd	.
.	16dd	16ff	8ff
.	16cc	16ee-	.
.	16b-	16dd	8ff
.	16a	16cc	.
=153	=153	=153	=153
16BB-	4b-	4dd	2ff
16D	.	.	.
16F	.	.	.
16B-	.	.	.
16d	2r	4r	.
16c	.	.	.
16B-	.	.	.
16A	.	.	.
16G	.	4dd	[4bb-
16F	.	.	.
16E-	.	.	.
16D	.	.	.
=154	=154	=154	=154
4C	16C	4ee-	4bb-]
.	16E-	.	.
.	16G	.	.
.	16c	.	.
2r	16e-	4cc	4aa
.	16d	.	.
.	16c	.	.
.	16B-	.	.
.	16A	4ee-	[4ccc
.	16G	.	.
.	16F	.	.
.	16E-	.	.
=155	=155	=155	=155
16D	4D	2.ff	4ccc]
16F	.	.	.
16A	.	.	.
16B-	.	.	.
16d	2r	.	4bb-
16c	.	.	.
16B-	.	.	.
16A	.	.	.
16G	.	.	[4ddd
16F	.	.	.
16E-	.	.	.
16D	.	.	.
=156	=156	=156	=156
4E-	16E-	4gg	4ddd]
.	16G	.	.
.	16c	.	.
.	16e-	.	.
2r	16g	4ee-	4ccc
.	16f	.	.
.	16e-	.	.
.	16d	.	.
.	16c	4gg	[4eee-
.	16B-	.	.
.	16A	.	.
.	16G	.	.
=157	=157	=157	=157
2.F	4F	2.a	16eee-]
.	.	.	16ccc
.	.	.	16aa
.	.	.	16ccc
.	2c	.	16eee-
.	.	.	16ccc
.	.	.	16aa
.	.	.	16ccc
.	.	.	16eee-
.	.	.	16ccc
.	.	.	16aa
.	.	.	16ee-
=158	=158	=158	=158
4B-	4d	4b-	16dd
.	.	.	16ee-
.	.	.	16ff
.	.	.	16ee-
2r	2r	2r	16dd
.	.	.	16cc
.	.	.	16b-
.	.	.	16a
.	.	.	16g
.	.	.	16f
.	.	.	16e-
.	.	.	16d
=159	=159	=159	=159
2.E-	2.G	2.c	8c
.	.	.	8e-
.	.	.	8g
.	.	.	8cc
.	.	.	8ee-
.	.	.	8gg
=160	=160	=160	=160
2.E	2.G 2.B-	2.d-	8e
.	.	.	8g
.	.	.	8b-
.	.	.	8dd-
.	.	.	8ee
.	.	.	8gg
=161	=161	=161	=161
4F	4B-	4d	8bb-
.	.	.	16ccc#
.	.	.	16ddd
2r	2r	2r	16aa
.	.	.	16bb-
.	.	.	16ee
.	.	.	16ff
.	.	.	16cc#
.	.	.	16dd
.	.	.	16a
.	.	.	16b-
=162	=162	=162	=162
4F	4A	4e- 4c	4f
4r	4.ee-	4.aa	4.ccc
4F	.	.	.
.	16dd	16gg	16bb-
.	16ee-	16aa	16ccc
=163	=163	=163	=163
4BB-	8dd	8bb-	8bb-
.	8r	8r	8ddd
8r	2a	4.cc	4.ee-
16E	.	.	.
16F	.	.	.
16E	.	.	.
16F	.	.	.
16FF	.	16b-	16dd
16F	.	16cc	16ee-
=164	=164	=164	=164
4BB-	8b-	8b-	8dd
.	8r	8r	8ff
8r	4.c	4.e-	4.a
16E	.	.	.
16F	.	.	.
16E	.	.	.
16F	.	.	.
16FF	16B-	16d	16g
16F	16c	16e-	16a
=165	=165	=165	=165
4BB-	8B-	8d	8b-
.	8r	8r	8dd
8r	4.E-	4.c	4.A
16EE	.	.	.
16FF	.	.	.
16EE	.	.	.
16FF	.	.	.
16EE	16D	16B-	16G
16FF	16E-	16c	16A
=166	=166	=166	=166
8BB-	4D	4B-	4B-
8BB-	.	.	.
8BB-	4.r	8r	8r
8BB-	.	8f	8dd
8BB-	.	8g	8ee-
8BB-	8F	8f	8dd
=167	=167	=167	=167
8BB-	8G	8f	8dd
8BB-	8A	8e-	8cc
8BB-	8B-	8d	8b-
8BB-	4r	8dd	8ff
8BB-	.	8ee-	8gg
8BB-	8f	8dd	8ff
=168	=168	=168	=168
8BB-	8g	8dd	8ff
8BB-	8a	8cc	8ee-
8BB-	8b-	8b-	8dd
4.r	4.r	8dd	8ff
.	.	8ee-	8gg
.	.	8dd	8ff
=169	=169	=169	=169
8FF	2.ee-	2.cc	2.aa
16FF	.	.	.
16EE	.	.	.
8FF	.	.	.
16FF	.	.	.
16EE	.	.	.
8FF	.	.	.
8F	.	.	.
=170	=170	=170	=170
8BB-	8dd	8dd	8bb-
2r	2r	2r	2r
8r	8r	8r	8r
==	==	==	==
*-	*-	*-	*-
!!!RWG1: This file contains only pitch and duration data.
!!!RWG2: Transposing instruments are not transposed.
!!!RWG3: Spines may have incompatible meters.
!!!RWG4: Durations of rests and tied notes may be interpreted.
!!!RWG: Key is interpreted using the Humdrum key tool.
!!!GTL: 6 Quartetti ("Tost III")
!!!AFT: stage1
!!!END: 1997/04/15
!!!KEY: 2413013096
!!!EMD: Converted from MuseData to Humdrum Dec 16, 2000, by Andreas Kornstaedt using muse2kern.
!!!EMD: Manual editing by Craig Sapp, Nov 2001
